X:133
T:
S:Uppt. efter sjökapten N. P. Ahlström, Klintehamn.
N:Melodi b.
M:3/4
L:1/8
K:G
D|G B G3 D|G B B2 HA A|B G E3 F/G/
w:Ad-jö, ad-jö! Vi av-sked ta-ga. Vi mås-te fo-ga_
A G F2 z D|G B G3 D|G B B2 HA A|
w:oss om-bord. Ock vå-ra svens-ka flag-gor va-ja, ock
B G E3 A|F D G2 z|:G|G F E3 D|F A D2 z D|
w:vin-den blå-ser god i nord. Kom, kom med jul-len, kom ge-svint! Här
c (B/A/) B3 (A/G/)|A (G/F/) G3:|
w:blå-ser_ av en_ fog-lig_ vind.
